X:4289
T:Miss Wedderburn
O:england
R:reel
S:Session at Shoot the Crows, Sligo, 1992
N:First part also played an octave higher.
M:C|
K:A
EAAG ABcA|BAcA BAFA|EAAG ABcA|1 BABc ~A3F:|2 BABc ABce||
|:d2fd cdec|B2cA BAFA|1 defd cdec|BAGB ABce:|2 eaag ~a3f|ecBc ~A3F||


